static/assets/img/icons/theme/communication/incoming-box.svg

<svg height="24" viewBox="0 0 24 24" width="24" xmlns="http://www.w3.org/2000/svg"><g fill="none" fill-rule="evenodd"><path d="m0 0h24v24h-24z" opacity="0"/><g fill="#000"><path d="m22 17v4c0 1.1045695-.8954305 2-2 2h-16c-1.1045695 0-2-.8954305-2-2v-4h4.27924078l.54415184 1.6324555c.2722281.8166843 1.03650578 1.3675445 1.8973666 1.3675445h6.66120678c.7575441 0 1.4500704-.4280048 1.7888544-1.1055728l.9472136-1.8944272z"/><path d="m2.5625 15 3.36404389-5.98052248c.35423661-.62975396 1.02060445-1.01947752 1.74315108-1.01947752h8.66061003c.7225467 0 1.3889145.38972356 1.7431511 1.01947752l3.3640439 5.98052248h-3.319466c-.7575441 0-1.4500704.4280048-1.7888544 1.1055728l-.9472136 1.8944272h-6.66120678l-.54415184-1.6324555c-.2722281-.8166843-1.03650578-1.3675445-1.8973666-1.3675445z" opacity=".3"/><path d="m11.1288761.73369771v1.9564735h-2.00767129c-.27614237 0-.5.22385763-.5.5v1.0232987c0 .27614238.22385763.5.5.5h2.00767129v1.9564735c0 .27614238.2238576.5.5.5.1183116 0 .2327903-.04195377.3230849-.11840318l3.5056612-2.96812285c.2107501-.17843487.2369467-.49393163.0585119-.70468174-.0178538-.02108716-.0374248-.04065813-.0585119-.0585119l-3.5056612-2.96812285c-.2107501-.17843487-.5262468-.1522382-.7046817.0585119-.0764494.09029468-.1184032.2047733-.1184032.32308492z" fill-rule="nonzero" transform="matrix(0 1 -1 0 15.621205 -8.298189)"/></g></g></svg>

<svg width="24px" height="24px" viewBox="0 0 24 24" version="1.1" xmlns="http://www.w3.org/2000/svg" xmlns:xlink="http://www.w3.org/1999/xlink">
    <title>Icon For Incoming-box</title>
    <g stroke="none" stroke-width="1" fill="none" fill-rule="evenodd">
        <rect opacity="0" x="0" y="0" width="24" height="24"></rect>
        <path d="M22,17 L22,21 C22,22.1045695 21.1045695,23 20,23 L4,23 C2.8954305,23 2,22.1045695 2,21 L2,17 L6.27924078,17 L6.82339262,18.6324555 C7.09562072,19.4491398 7.8598984,20 8.72075922,20 L15.381966,20 C16.1395101,20 16.8320364,19.5719952 17.1708204,18.8944272 L18.118034,17 L22,17 Z" fill="#000000"></path>
        <path d="M2.5625,15 L5.92654389,9.01947752 C6.2807805,8.38972356 6.94714834,8 7.66969497,8 L16.330305,8 C17.0528517,8 17.7192195,8.38972356 18.0734561,9.01947752 L21.4375,15 L18.118034,15 C17.3604899,15 16.6679636,15.4280048 16.3291796,16.1055728 L15.381966,18 L8.72075922,18 L8.17660738,16.3675445 C7.90437928,15.5508602 7.1401016,15 6.27924078,15 L2.5625,15 Z" fill="#000000" opacity="0.3"></path>
        <path d="M11.1288761,0.733697713 L11.1288761,2.69017121 L9.12120481,2.69017121 C8.84506244,2.69017121 8.62120481,2.91402884 8.62120481,3.19017121 L8.62120481,4.21346991 C8.62120481,4.48961229 8.84506244,4.71346991 9.12120481,4.71346991 L11.1288761,4.71346991 L11.1288761,6.66994341 C11.1288761,6.94608579 11.3527337,7.16994341 11.6288761,7.16994341 C11.7471877,7.16994341 11.8616664,7.12798964 11.951961,7.05154023 L15.4576222,4.08341738 C15.6683723,3.90498251 15.6945689,3.58948575 15.5161341,3.37873564 C15.4982803,3.35764848 15.4787093,3.33807751 15.4576222,3.32022374 L11.951961,0.352100892 C11.7412109,0.173666017 11.4257142,0.199862688 11.2472793,0.410612793 C11.1708299,0.500907473 11.1288761,0.615386087 11.1288761,0.733697713 Z" fill="#000000" fill-rule="nonzero" transform="translate(11.959697, 3.661508) rotate(-270.000000) translate(-11.959697, -3.661508) "></path>
    </g>
</svg>
